icons/on-the-ground-elevation-16.svg

<svg id="icons" xmlns="http://www.w3.org/2000/svg" viewBox="0 0 16 16"><defs><style>.cls-1{fill:none;}</style></defs><rect class="cls-1" width="16" height="16"/><path d="M8.5,14.84961A2.34961,2.34961,0,1,0,6.1499,12.5,2.35075,2.35075,0,0,0,8.5,14.84961ZM8.5,11A1.5,1.5,0,1,1,7,12.5,1.50172,1.50172,0,0,1,8.5,11ZM16,15v1H1V0H2V1H3V2H2V3H3V4H2V5H3V6H2V7H3V8H2V9H3v1H2v1H3v1H2v1H3v1H2v1Z"/></svg>

<svg xmlns="http://www.w3.org/2000/svg" viewBox="0 0 16 16"><path fill="none" d="M0 0h16v16H0z"/><path d="M8.5 14.85a2.35 2.35 0 1 0-2.35-2.35 2.35 2.35 0 0 0 2.35 2.35zm0-3.85A1.5 1.5 0 1 1 7 12.5 1.502 1.502 0 0 1 8.5 11zm7.5 4v1H1V0h1v1h1v1H2v1h1v1H2v1h1v1H2v1h1v1H2v1h1v1H2v1h1v1H2v1h1v1H2v1z"/></svg>
